X:163
T:Capt. Reed's Delight
M:C
L:1/8
B:Thompson's Compleat Collection of 200 Favourite Country Dances, vol. 2 (London, 1765)
Z:Transcribed and edited by Flynn Titford-Mock, 2007
Z:abc's:AK/Fiddler's Companion
K:D
D2 | F2 D>F A2 F>A | d2 A<d f2 d>f | a2 b>a g2 (3fef | e2 e>e e2 D2 | F2 D>F A2 F>A |
B>cd>e {d}c2 B>A | B>cd>g f2 "tr"e2 | d2 d>d d2 :: A | d2 f>d B2 d>B | AfdB AFED |
FAdc BAGF | E2 E>E E2D2 | F2 D>F A2 F>A | B2 g>e {d}c2 B>A | B>ba>g f2 "tr"e2 | d2 d>d d2 :|

